X:1
T:Title
%%score 1 2 { 3 | 4 }
L:1/8
Q:1/4=85
M:6/8
K:F
V:1 treble nm="Grand Piano, Soprano"
V:2 treble nm="Drawbar Organ, Staff-1"
V:3 bass nm="Choir Pad, Pray for Your Boy Tonight"
V:4 bass 
V:1
 ccc c2 B | A2 A A2 A/A/ | GGG GAB | A6 | AAA A2 G/G/ | F2 E D2 D/D/ | CFA c2 E | %7
w: By~George~Robert~Cairns * * * *|||||||
 F3- F3/2 z/ [Fc] | [Fd][Fd][Fd] [Fc]2 [FA] | [Ac]3- [Ac]3/2 z/ [Ac] | [Af]2 [Fc] [Fd]2 [EB] | %11
w: ||||
 [FA]3- [FA]3/2 z/ [FA] | [EG]2 [EG] [EG]2 [EG] | [EG][FA][GB] [FA]2 [FA] | %14
w: |||
 [DF][CF][CE] [CF][CA]>[CG] | [CF]6- | [CF]3 z3 |] %17
w: |||
V:2
 z [CFA][CFA] z [CEGB][CEGB] | z A,C FCA, | z [CEG][CEG] [CEG][CFA][CGB] | %3
 [CFA][CFA][CFA] .[CFA]3 | z [CFA][CFA] .[CFA]3 | [A,DF]2[K:bass] [A,^CE] [F,B,D]2 [F,B,D] | %6
 z[K:treble] [CFA][CFA] z [CEG][B,CE] | [A,CF][A,CF][A,CF] .[A,CF]3 | z6 | z6 | z6 | z6 | z6 | z6 | %14
 z6 | z6 | z6 |] %17
V:3
 .F,3 .C,3 | .F,3 z3 | .C,3 .C,3 | F,F,F, .F,3 | .F,3 F,2 C, | D,2 A,, B,,2 B,, | .C,3 .C,3 | %7
 F,F,F, F,2 A, | B,B,B, A,2[K:treble] C | C3- C3/2 z/ C | C2[K:bass] A, B,2 G, | %11
 F,3- F,3/2 z/[K:treble] C | E2 E E2 E | E2 E C2 C | B,A,G, A,C>B, | A,6- | A,3 z3 |] %17
V:4
 .F,,3 .C,,3 | .F,,3 z3 | .C,,3 .C,,3 | F,,F,,F,, .F,,3 | .F,,3 F,,2 C,, | .D,,3 B,,,2 B,,, | %6
 .C,,3 .C,,3 | F,,F,,F,, F,,2 F, | B,,B,,B,, F,2 F, | F,3- F,3/2 z/ F, | z2 F, B,,2 B,, | %11
 z3 z2 F, | C,2 C, C,2 C, | C,2 C, F,2 F, | C,C,C, C,C,>C, | [F,,F,]6- | [F,,F,]3 z3 |] %17

